src/pos-icons/tortoise.svg

<svg height="24" viewBox="0 0 24 24" width="24" xmlns="http://www.w3.org/2000/svg"><path d="m19.31 5.6c-1.22-.04-2.43.9-2.81 2.4-.5 2-.5 2-1.5 3-2 2-5 3-11 4-1 .16-1.5.5-2 1 2 0 4 0 2.5 1.5l-1.5 1.5h3l2-2c2 1 3.33 1 5.33 0l.67 2h3l-1-3s1-4 2-5 1 0 2 0 2-1 2-2.5c0-.5 0-1.5-1.5-2.5-.35-.24-.76-.38-1.19-.4m-10.31.4a6 6 0 0 0 -6 6c0 .6.13 1.08.23 1.6 5.92-.98 9.06-2.01 10.7-3.66l.5-.5c-.99-2.1-3.11-3.44-5.43-3.44z"/></svg>

<?xml version="1.0" encoding="UTF-8"?><!DOCTYPE svg PUBLIC "-//W3C//DTD SVG 1.1//EN" "http://www.w3.org/Graphics/SVG/1.1/DTD/svg11.dtd"><svg xmlns="http://www.w3.org/2000/svg" xmlns:xlink="http://www.w3.org/1999/xlink" version="1.1" id="mdi-tortoise" width="24" height="24" viewBox="0 0 24 24"><path d="M19.31,5.6C18.09,5.56 16.88,6.5 16.5,8C16,10 16,10 15,11C13,13 10,14 4,15C3,15.16 2.5,15.5 2,16C4,16 6,16 4.5,17.5L3,19H6L8,17C10,18 11.33,18 13.33,17L14,19H17L16,16C16,16 17,12 18,11C19,10 19,11 20,11C21,11 22,10 22,8.5C22,8 22,7 20.5,6C20.15,5.76 19.74,5.62 19.31,5.6M9,6A6,6 0 0,0 3,12C3,12.6 3.13,13.08 3.23,13.6C9.15,12.62 12.29,11.59 13.93,9.94L14.43,9.44C13.44,7.34 11.32,6 9,6Z" /></svg>
